X:144
T:Corimonie's Rant
R:Strathspey
B:The Athole Collection
M:C|
L:1/8
K:D
A|D/D/D A>F d>BA>F|D/D/D A>F E>FG>B|D/D/D A>F d>BA>B|d>fe>g fdd:|
g|f<d d>f g>ef>d|e/e/e f>d g>e=c>e|f<d d>f g>ef>d|e/e/e e/e/e f<d d>g|
f<d d>f g>ef>d|e>df>d g>e=c>g|f<ae<f d>ef>d|A<F f>g fdd||

